X:1
T:My Wife has scolded me
T:Throd mo bhean a's throd i rium
O:Scotland
R:Slow Air
B:Fraser (The Airs and Melodies Peculiar to the Highlands of Scotland and the Isles), 1874 #63, p.22
S:Skip McCabe <mccab42:attglobal.net> and Fiddler's Companion, scots-l 2002-5-3
M:C
L:1/8
S:Fraser Collection
K:G Minor
D | G>^F GD F2 | GG G>A B>c dz/^f/ | g>d d>c B3/2c/4d/4 F>f | dD d>c BG G :|
d | g>d gb f>d f2 | b>a g>B G/A/B/c/ dz/^f/ | g>d d>c B3/2c/4d/4 F>e |
dD d>c BG G>d | g>d gb f>d f2 | b>a g>B G/A/B/c/ d>^f | g>d d>c B3/2c/4d/4 F>e | dD d>c BG G ||
